Hatter-kde/actions/16/arrow-right-double.svg

<svg xmlns="http://www.w3.org/2000/svg" viewBox="0 0 16 16">
  <defs id="defs3051">
    <style type="text/css" id="current-color-scheme">
      .ColorScheme-Text {
        color:#363636;
      }
      </style>
  </defs>
 <path style="fill:currentColor;fill-opacity:1;stroke:none" 
     d="M 4.2480469 2 L 3.5 2.71875 L 7.796875 6.84375 L 9.0351562 8 L 7.796875 9.15625 L 3.5 13.28125 L 3.7285156 13.5 L 4.1191406 13.875 L 4.2480469 14 L 8.546875 9.875 L 10.5 8 L 8.546875 6.125 L 4.2480469 2 z M 12 2 L 12 14 L 13 14 L 13 2 L 12 2 z "
     class="ColorScheme-Text"
     />
</svg>

<?xml version="1.0" encoding="UTF-8"?>
<svg viewBox="0 0 16 16" xmlns="http://www.w3.org/2000/svg">
 <defs id="defs3051">
  <style id="current-color-scheme" type="text/css">.ColorScheme-Text {
        color:#363636;
      }</style>
 </defs>
 <path class="ColorScheme-Text" d="m4.248 2-0.74805 0.71875 4.2969 4.125 1.2383 1.1562-1.2383 1.1562-4.2969 4.125 0.22852 0.21875 0.39062 0.375 0.12891 0.125 4.2988-4.125 1.9531-1.875-1.9531-1.875-4.2988-4.125zm7.752 0v12h1v-12h-1z" fill="currentColor"/>
</svg>
